src/wp-content/themes/aquaban/assets/images/mail-2x.svg

<svg width="20" height="15" viewBox="0 0 20 15" fill="none" xmlns="http://www.w3.org/2000/svg">
<path d="M0.546484 0.535059C0.893359 0.187402 1.3832 -0.00830078 1.87383 0.000292969C7.29141 -9.76562e-05 12.709 -9.76562e-05 18.1266 0.000292969C18.5535 -0.00517578 18.9824 0.137012 19.3133 0.408887C19.7316 0.742481 19.9867 1.26475 20 1.79951V1.95811C19.9582 2.49521 19.6688 3.00771 19.2168 3.3042C16.4977 5.11943 13.777 6.93232 11.0563 8.7456C10.4328 9.19248 9.53594 9.18389 8.91914 8.72842C6.20078 6.91475 3.48086 5.10303 0.7625 3.28975C0.322266 2.99326 0.0414062 2.48857 0 1.96123V1.79912C0.0121094 1.32842 0.208984 0.864746 0.546484 0.535059Z" fill="#00AFEA"/>
<path d="M0 4.18347C0.0640625 4.23152 0.130469 4.27644 0.196875 4.32136C2.78242 6.0448 5.36797 7.76863 7.95352 9.49206C8.22383 9.67019 8.4875 9.86394 8.78672 9.99206C9.53906 10.33 10.4313 10.3331 11.1871 10.0046C11.4781 9.88347 11.7363 9.70027 11.9977 9.52683C13.4359 8.56785 14.8738 7.60925 16.3121 6.65027C17.5402 5.82683 18.7777 5.01667 20 4.18425V13.1784C19.9871 13.6487 19.7918 14.112 19.4562 14.4428C19.1547 14.7452 18.7441 14.9354 18.3188 14.9702C18.15 14.9839 17.9805 14.9776 17.8117 14.9788C12.4988 14.9788 7.18594 14.9792 1.87305 14.9788C1.37305 14.987 0.873437 14.7835 0.525391 14.4237C0.2 14.096 0.0125 13.6413 0 13.1807V4.18347Z" fill="#00AFEA"/>
</svg>

<svg width="20" height="15" fill="none" xmlns="http://www.w3.org/2000/svg"><path d="M.546.535A1.849 1.849 0 011.874 0h16.253A1.844 1.844 0 0120 1.8v.158a1.79 1.79 0 01-.783 1.346l-8.16 5.442a1.857 1.857 0 01-2.138-.018L.762 3.29A1.784 1.784 0 010 1.96V1.8A1.85 1.85 0 01.546.535z" fill="#00AFEA"/><path d="M0 4.183c.064.049.13.093.197.138l7.757 5.171c.27.178.534.372.833.5a3.007 3.007 0 002.4.013c.291-.122.55-.305.81-.478l4.315-2.877C17.54 5.827 18.778 5.017 20 4.184v8.994c-.013.47-.208.934-.544 1.265a1.832 1.832 0 01-1.137.527c-.169.014-.338.008-.507.009H1.873A1.85 1.85 0 010 13.18V4.183z" fill="#00AFEA"/></svg>
